assets/img/services-list-item-4.svg

<svg xmlns="http://www.w3.org/2000/svg" width="22" height="32"><path fill-rule="evenodd" fill="#666D89" d="M19 31.999l-16 .002a3 3 0 01-3-3v-26A3 3 0 013 0h16a3 3 0 013 3v26a2.999 2.999 0 01-3 2.999zM20 3a1 1 0 00-1-1L3 2.001a1 1 0 00-1 1v2L20 5V3zm0 3H2v19.997l18-.001V6zm0 20.996l-18 .001v2.004c0 .551.448 1 1 1l16-.002A1 1 0 0020 29v-2.004zm-8.5 2h-1a.5.5 0 010-1h1a.5.5 0 110 1zM9.5 3h3a.5.5 0 110 1h-3a.5.5 0 010-1z"/></svg>

<svg 
 xmlns="http://www.w3.org/2000/svg"
 xmlns:xlink="http://www.w3.org/1999/xlink"
 width="22px" height="32px">
<path fill-rule="evenodd"  fill="rgb(102, 109, 137)"
 d="M19.000,31.999 L3.000,32.001 C1.343,32.001 -0.000,30.658 -0.000,29.001 L-0.000,3.001 C-0.000,1.343 1.343,0.000 3.000,0.000 L19.000,-0.000 C20.657,-0.000 22.000,1.342 22.000,3.000 L22.000,29.000 C22.000,30.657 20.657,31.999 19.000,31.999 ZM20.000,3.000 C20.000,2.448 19.552,2.000 19.000,2.000 L3.000,2.001 C2.448,2.001 2.000,2.449 2.000,3.001 L2.000,5.001 L20.000,5.000 L20.000,3.000 ZM20.000,6.000 L2.000,6.000 L2.000,25.997 L20.000,25.996 L20.000,6.000 ZM20.000,26.996 L2.000,26.997 L2.000,29.001 C2.000,29.552 2.448,30.001 3.000,30.001 L19.000,29.999 C19.552,29.999 20.000,29.551 20.000,29.000 L20.000,26.996 ZM11.500,28.996 L10.500,28.996 C10.224,28.996 10.000,28.772 10.000,28.496 C10.000,28.219 10.224,27.996 10.500,27.996 L11.500,27.996 C11.776,27.996 12.000,28.219 12.000,28.496 C12.000,28.772 11.776,28.996 11.500,28.996 ZM9.500,3.000 L12.500,3.000 C12.776,3.000 13.000,3.223 13.000,3.500 C13.000,3.776 12.776,4.000 12.500,4.000 L9.500,4.000 C9.224,4.000 9.000,3.776 9.000,3.500 C9.000,3.223 9.224,3.000 9.500,3.000 Z"/>
</svg>
